X: 975
T: Polska efter Pelle Fors
S: efter Pelle Fors
S: Känd genom Hedningarna
D: Hedningarna
O: Östergötland
R: Polska
Z: Håkan Lidén, 2008-09-27
M: 3/4
L: 1/8
K: Edor
e2 f2 B>B | d/e/d/c/ AA BE/F/ | G/A/G/F/ E/D/E/F/ G/A/G/F/ | Ee e/d/f/d/ B>B |
ee/e/ ff/f/ BB/B/ | d/e/d/c/ AA BE/F/ | G/A/G/F/ E/D/E/F/ G/A/G/F/ | GF/E/ DE E2 :|
|: EE/F/ G/A/G/F/ E/F/G/A/ | Be e/d/f/d/ f/d/c/d/ | Bd ef gg/g/ | fe e/f/f/d/ f/d/c/d/ :|
E/G/G/d/ c/A/c/A/ B/G/B/G/ | E/G/G/d/ c/A/c/A/ B/G/B/G/ | G/A/G/F/ E/F/G/A/ B/=c/B/F/ | GF/E/ DE E2 |]
(:musicend:)

(:music:)
